X: 3
T: Smith's Reel #2
M:C|
L:1/8
B:Fiddler's Fake Book p.260
K:D
fg \
| "D"afbf afde | "G"fafd "(A)"edBc | "D"dedB ABde | "A7"fafd e2fg |
| "D"afbf afde | "G"fafd "(A)"edBc | "D"dedB ABde | "A7"fdec "D"d2 :|
|: FG \
| "D"AFAB A2dc | "G"BABc BAFG | "D"AFAB ABde | "A7"fafd edBA |
| "D"FAAB A2dc | "G"BABc BAFG | "D"AFAB ABde | "A7"fdec "D"d2 :|
